Numix-Light/16/status/indicator-keyboard-Be-3.svg

<?xml version="1.0" encoding="UTF-8" standalone="no"?>
<svg
   xmlns:dc="http://purl.org/dc/elements/1.1/"
   xmlns:cc="http://creativecommons.org/ns#"
   xmlns:rdf="http://www.w3.org/1999/02/22-rdf-syntax-ns#"
   xmlns:svg="http://www.w3.org/2000/svg"
   xmlns="http://www.w3.org/2000/svg"
   xmlns:sodipodi="http://sodipodi.sourceforge.net/DTD/sodipodi-0.dtd"
   xmlns:inkscape="http://www.inkscape.org/namespaces/inkscape"
   viewBox="0 0 16 16"
   id="svg2"
   version="1.1"
   inkscape:version="0.91 r13725"
   sodipodi:docname="indicator-keyboard-Be-3.svg">
  <metadata
     id="metadata14">
    <rdf:RDF>
      <cc:Work
         rdf:about="">
        <dc:format>image/svg+xml</dc:format>
        <dc:type
           rdf:resource="http://purl.org/dc/dcmitype/StillImage" />
      </cc:Work>
    </rdf:RDF>
  </metadata>
  <defs
     id="defs12" />
  <sodipodi:namedview
     pagecolor="#ffffff"
     bordercolor="#666666"
     borderopacity="1"
     objecttolerance="10"
     gridtolerance="10"
     guidetolerance="10"
     inkscape:pageopacity="0"
     inkscape:pageshadow="2"
     inkscape:window-width="459"
     inkscape:window-height="369"
     id="namedview10"
     showgrid="false"
     inkscape:zoom="14.75"
     inkscape:cx="8"
     inkscape:cy="8"
     inkscape:window-x="65"
     inkscape:window-y="24"
     inkscape:window-maximized="0"
     inkscape:current-layer="svg2" />
  <path
     style="fill:#353535;fill-opacity:1"
     d="M 1.5996094 0 C 0.71320937 2.9605947e-16 0 0.71320937 0 1.5996094 L 0 14.400391 C 2.9605947e-16 15.286791 0.71320937 16 1.5996094 16 L 14.400391 16 C 15.286791 16 16 15.286791 16 14.400391 L 16 1.5996094 C 16 0.71320937 15.286791 0 14.400391 0 L 1.5996094 0 z M 3.2441406 4.8046875 C 3.5801406 4.8046875 3.8972656 4.8327187 4.1972656 4.8867188 C 4.5032656 4.9407187 4.7700469 5.03025 4.9980469 5.15625 C 5.2260469 5.28225 5.4070625 5.4501562 5.5390625 5.6601562 C 5.6770625 5.8641563 5.7460938 6.1197812 5.7460938 6.4257812 C 5.7460938 6.7617812 5.658375 7.0490625 5.484375 7.2890625 C 5.316375 7.5230625 5.0887813 7.6853906 4.8007812 7.7753906 C 4.9807812 7.8173906 5.1449219 7.8770781 5.2949219 7.9550781 C 5.4449219 8.0330781 5.5774062 8.1357187 5.6914062 8.2617188 C 5.8054063 8.3817188 5.893125 8.5309375 5.953125 8.7109375 C 6.019125 8.8849375 6.0507812 9.0957969 6.0507812 9.3417969 C 6.0507812 9.9297971 5.8176094 10.379406 5.3496094 10.691406 C 4.8816094 10.997406 4.1576875 11.150391 3.1796875 11.150391 C 3.0776875 11.150391 2.9583125 11.144813 2.8203125 11.132812 C 2.6883125 11.126813 2.55025 11.113703 2.40625 11.095703 C 2.26825 11.083703 2.1357656 11.068781 2.0097656 11.050781 C 1.8837656 11.026781 1.7775 11.002516 1.6875 10.978516 L 1.6875 4.9765625 C 1.7955 4.9465625 1.914875 4.9222969 2.046875 4.9042969 C 2.178875 4.8802969 2.3131719 4.8616094 2.4511719 4.8496094 C 2.5951719 4.8316094 2.7332344 4.8204531 2.8652344 4.8144531 C 3.0032344 4.8084531 3.1301406 4.8046875 3.2441406 4.8046875 z M 3.2441406 5.3261719 C 3.0221406 5.3261719 2.8317813 5.3337031 2.6757812 5.3457031 C 2.5257813 5.3577031 2.4008281 5.372625 2.2988281 5.390625 L 2.2988281 7.5859375 L 3.4863281 7.5859375 C 3.7083281 7.5859375 3.9191875 7.5710156 4.1171875 7.5410156 C 4.3151875 7.5050156 4.4849062 7.4453281 4.6289062 7.3613281 C 4.7789062 7.2713281 4.8964688 7.1537656 4.9804688 7.0097656 C 5.0644687 6.8597656 5.1074219 6.6713594 5.1074219 6.4433594 C 5.1074219 6.2393594 5.0607031 6.0676875 4.9707031 5.9296875 C 4.8807031 5.7856875 4.7519844 5.668125 4.5839844 5.578125 C 4.4219844 5.488125 4.228 5.426625 4 5.390625 C 3.772 5.348625 3.5201406 5.3261719 3.2441406 5.3261719 z M 9.0839844 6.3359375 C 9.6539844 6.3359375 10.105406 6.5205781 10.441406 6.8925781 C 10.783406 7.2645781 10.955078 7.8373281 10.955078 8.6113281 C 10.955078 8.6593281 10.953266 8.7078594 10.947266 8.7558594 C 10.947266 8.8038594 10.9435 8.848625 10.9375 8.890625 L 7.6699219 8.890625 C 7.6879219 9.460625 7.82975 9.8990779 8.09375 10.205078 C 8.35775 10.511078 8.7775156 10.664062 9.3535156 10.664062 C 9.6715156 10.664062 9.9233749 10.634219 10.109375 10.574219 C 10.295375 10.514219 10.429672 10.463875 10.513672 10.421875 L 10.623047 10.925781 C 10.539047 10.973781 10.378531 11.029703 10.144531 11.095703 C 9.9165311 11.161703 9.6479375 11.195312 9.3359375 11.195312 C 8.9279375 11.195312 8.5790156 11.135625 8.2910156 11.015625 C 8.0030156 10.895625 7.7660781 10.727719 7.5800781 10.511719 C 7.3940781 10.295719 7.2597812 10.040094 7.1757812 9.7460938 C 7.0917813 9.4460938 7.0488281 9.119625 7.0488281 8.765625 C 7.0488281 8.357625 7.1067031 8.003125 7.2207031 7.703125 C 7.3407031 7.397125 7.4936875 7.1415 7.6796875 6.9375 C 7.8716875 6.7335 8.088125 6.5842813 8.328125 6.4882812 C 8.574125 6.3862812 8.8259844 6.3359375 9.0839844 6.3359375 z M 9.0917969 6.8574219 C 8.8817969 6.8574219 8.6933906 6.8984219 8.5253906 6.9824219 C 8.3633906 7.0664219 8.21975 7.1802188 8.09375 7.3242188 C 7.97375 7.4622188 7.8766875 7.6245469 7.8046875 7.8105469 C 7.7386875 7.9965469 7.6995 8.1924844 7.6875 8.3964844 L 10.351562 8.3964844 C 10.339562 7.9104844 10.225766 7.5317187 10.009766 7.2617188 C 9.7937655 6.9917187 9.4877969 6.8574219 9.0917969 6.8574219 z M 2.2988281 8.1074219 L 2.2988281 10.564453 C 2.3888281 10.576453 2.523125 10.591375 2.703125 10.609375 C 2.883125 10.621375 3.0659531 10.628906 3.2519531 10.628906 C 3.5279531 10.628906 3.7947344 10.610219 4.0527344 10.574219 C 4.3167344 10.538219 4.5480937 10.472953 4.7460938 10.376953 C 4.9440937 10.280953 5.1026563 10.148469 5.2226562 9.9804688 C 5.3426563 9.8124687 5.4042969 9.5960312 5.4042969 9.3320312 C 5.4042969 9.0920313 5.3613437 8.8942813 5.2773438 8.7382812 C 5.1933438 8.5762813 5.0739687 8.449375 4.9179688 8.359375 C 4.7619688 8.263375 4.5697969 8.1981094 4.3417969 8.1621094 C 4.1197969 8.1261094 3.86975 8.1074219 3.59375 8.1074219 L 2.2988281 8.1074219 z M 12.945312 8.7539062 C 13.148112 8.7539062 13.320544 8.7793781 13.464844 8.8300781 C 13.613044 8.8807781 13.736484 8.953275 13.833984 9.046875 C 13.931484 9.136575 14.003981 9.2463 14.050781 9.375 C 14.097581 9.4997999 14.121094 9.6350031 14.121094 9.7832031 C 14.121094 10.021103 14.056434 10.217041 13.927734 10.369141 C 13.802934 10.517341 13.640306 10.625106 13.441406 10.691406 C 13.550606 10.718706 13.656412 10.759859 13.757812 10.818359 C 13.863112 10.872959 13.957163 10.945456 14.039062 11.035156 C 14.120963 11.120956 14.187581 11.226762 14.238281 11.351562 C 14.288981 11.476362 14.3125 11.623316 14.3125 11.791016 C 14.3125 11.962616 14.283103 12.119372 14.220703 12.263672 C 14.162203 12.407972 14.072072 12.535331 13.951172 12.644531 C 13.834172 12.749831 13.6833 12.834084 13.5 12.896484 C 13.3167 12.954984 13.103122 12.984375 12.857422 12.984375 C 12.728722 12.984375 12.6092 12.974578 12.5 12.955078 C 12.3947 12.939478 12.30065 12.919884 12.21875 12.896484 C 12.13685 12.873084 12.066313 12.849572 12.007812 12.826172 C 11.953213 12.802772 11.912066 12.783178 11.884766 12.767578 L 11.984375 12.427734 C 12.007775 12.443334 12.046963 12.462928 12.101562 12.486328 C 12.156163 12.509728 12.220822 12.533241 12.294922 12.556641 C 12.372922 12.576141 12.459134 12.593775 12.552734 12.609375 C 12.650234 12.624975 12.756041 12.632813 12.869141 12.632812 C 13.239641 12.632812 13.504162 12.556397 13.664062 12.404297 C 13.823963 12.248297 13.904297 12.040597 13.904297 11.779297 C 13.904297 11.607697 13.870988 11.464663 13.804688 11.351562 C 13.742287 11.238462 13.654116 11.148331 13.541016 11.082031 C 13.431816 11.011831 13.302497 10.962847 13.154297 10.935547 C 13.009997 10.904347 12.857159 10.888672 12.693359 10.888672 L 12.634766 10.888672 L 12.634766 10.574219 L 12.769531 10.574219 C 12.874831 10.574219 12.980644 10.564422 13.089844 10.544922 C 13.202944 10.521522 13.304831 10.480375 13.394531 10.421875 C 13.488131 10.363375 13.564547 10.285 13.623047 10.1875 C 13.685447 10.09 13.716797 9.9646001 13.716797 9.8125 C 13.716797 9.6838 13.695244 9.5760281 13.652344 9.4863281 C 13.609444 9.3927281 13.550662 9.3182719 13.476562 9.2636719 C 13.406363 9.2090719 13.322109 9.1698844 13.224609 9.1464844 C 13.131009 9.1191844 13.033034 9.1054687 12.927734 9.1054688 C 12.717134 9.1054688 12.552547 9.1348594 12.435547 9.1933594 C 12.318547 9.2518594 12.222537 9.3067219 12.148438 9.3574219 L 11.984375 9.0585938 C 12.023375 9.0312937 12.072359 8.9999438 12.130859 8.9648438 C 12.193259 8.9297438 12.265756 8.8964344 12.347656 8.8652344 C 12.429556 8.8340344 12.519687 8.8085625 12.617188 8.7890625 C 12.718587 8.7656625 12.828312 8.7539062 12.945312 8.7539062 z "
     id="path4" />
</svg>

<svg xmlns="http://www.w3.org/2000/svg" viewBox="0 0 16 16">
 <path d="m 1.6 0 c -0.886 0 -1.6 0.713 -1.6 1.6 l 0 12.801 c 0 0.886 0.713 1.6 1.6 1.6 l 12.801 0 c 0.886 0 1.6 -0.713 1.6 -1.6 l 0 -12.801 c 0 -0.886 -0.713 -1.6 -1.6 -1.6 l -12.801 0 z m 1.645 4.805 c 0.336 0 0.653 0.028 0.953 0.082 c 0.306 0.054 0.573 0.144 0.801 0.27 c 0.228 0.126 0.409 0.294 0.541 0.504 c 0.138 0.204 0.207 0.46 0.207 0.766 c 0 0.336 -0.088 0.623 -0.262 0.863 c -0.168 0.234 -0.396 0.396 -0.684 0.486 c 0.18 0.042 0.344 0.102 0.494 0.18 c 0.15 0.078 0.282 0.181 0.396 0.307 c 0.114 0.12 0.202 0.269 0.262 0.449 c 0.066 0.174 0.098 0.385 0.098 0.631 c 0 0.588 -0.233 1.038 -0.701 1.35 c -0.468 0.306 -1.192 0.459 -2.17 0.459 c -0.102 0 -0.221 -0.006 -0.359 -0.018 c -0.132 -0.006 -0.27 -0.019 -0.414 -0.037 c -0.138 -0.012 -0.27 -0.027 -0.396 -0.045 c -0.126 -0.024 -0.232 -0.048 -0.322 -0.072 l 0 -6 c 0.108 -0.03 0.227 -0.054 0.359 -0.072 c 0.132 -0.024 0.266 -0.043 0.404 -0.055 c 0.144 -0.018 0.282 -0.029 0.414 -0.035 c 0.138 -0.006 0.265 -0.01 0.379 -0.01 z m 0 0.521 c -0.222 0 -0.412 0.008 -0.568 0.02 c -0.15 0.012 -0.275 0.027 -0.377 0.045 l 0 2.195 l 1.188 0 c 0.222 0 0.433 -0.015 0.631 -0.045 c 0.198 -0.036 0.368 -0.096 0.512 -0.18 c 0.15 -0.09 0.268 -0.208 0.352 -0.352 c 0.084 -0.15 0.127 -0.338 0.127 -0.566 c 0 -0.204 -0.047 -0.376 -0.137 -0.514 c -0.09 -0.144 -0.219 -0.262 -0.387 -0.352 c -0.162 -0.09 -0.356 -0.152 -0.584 -0.188 c -0.228 -0.042 -0.48 -0.064 -0.756 -0.064 z m 5.84 1.01 c 0.57 0 1.021 0.185 1.357 0.557 c 0.342 0.372 0.514 0.945 0.514 1.719 c 0 0.048 -0.002 0.097 -0.008 0.145 c 0 0.048 -0.004 0.093 -0.01 0.135 l -3.268 0 c 0.018 0.57 0.16 1.01 0.424 1.314 c 0.264 0.306 0.684 0.459 1.26 0.459 c 0.318 0 0.57 -0.03 0.756 -0.09 c 0.186 -0.06 0.32 -0.11 0.404 -0.152 l 0.109 0.504 c -0.084 0.048 -0.245 0.104 -0.479 0.17 c -0.228 0.066 -0.497 0.1 -0.809 0.1 c -0.408 0 -0.757 -0.06 -1.045 -0.18 c -0.288 -0.12 -0.525 -0.288 -0.711 -0.504 c -0.186 -0.216 -0.32 -0.472 -0.404 -0.766 c -0.084 -0.3 -0.127 -0.626 -0.127 -0.98 c 0 -0.408 0.058 -0.762 0.172 -1.063 c 0.12 -0.306 0.273 -0.562 0.459 -0.766 c 0.192 -0.204 0.408 -0.353 0.648 -0.449 c 0.246 -0.102 0.498 -0.152 0.756 -0.152 z m 0.008 0.521 c -0.21 0 -0.398 0.041 -0.566 0.125 c -0.162 0.084 -0.306 0.198 -0.432 0.342 c -0.12 0.138 -0.217 0.3 -0.289 0.486 c -0.066 0.186 -0.105 0.382 -0.117 0.586 l 2.664 0 c -0.012 -0.486 -0.126 -0.865 -0.342 -1.135 c -0.216 -0.27 -0.522 -0.404 -0.918 -0.404 z m -6.793 1.25 l 0 2.457 c 0.09 0.012 0.224 0.027 0.404 0.045 c 0.18 0.012 0.363 0.02 0.549 0.02 c 0.276 0 0.543 -0.019 0.801 -0.055 c 0.264 -0.036 0.495 -0.101 0.693 -0.197 c 0.198 -0.096 0.357 -0.228 0.477 -0.396 c 0.12 -0.168 0.182 -0.384 0.182 -0.648 c 0 -0.24 -0.043 -0.438 -0.127 -0.594 c -0.084 -0.162 -0.203 -0.289 -0.359 -0.379 c -0.156 -0.096 -0.348 -0.161 -0.576 -0.197 c -0.222 -0.036 -0.472 -0.055 -0.748 -0.055 l -1.295 0 z m 10.646 0.646 c 0.203 0 0.375 0.025 0.52 0.076 c 0.148 0.051 0.272 0.123 0.369 0.217 c 0.098 0.09 0.17 0.199 0.217 0.328 c 0.047 0.125 0.07 0.26 0.07 0.408 c 0 0.238 -0.065 0.434 -0.193 0.586 c -0.125 0.148 -0.287 0.256 -0.486 0.322 c 0.109 0.027 0.215 0.068 0.316 0.127 c 0.105 0.055 0.199 0.127 0.281 0.217 c 0.082 0.086 0.149 0.192 0.199 0.316 c 0.051 0.125 0.074 0.272 0.074 0.439 c 0 0.172 -0.029 0.328 -0.092 0.473 c -0.059 0.144 -0.149 0.272 -0.27 0.381 c -0.117 0.105 -0.268 0.19 -0.451 0.252 c -0.183 0.059 -0.397 0.088 -0.643 0.088 c -0.129 0 -0.248 -0.01 -0.357 -0.029 c -0.105 -0.016 -0.199 -0.035 -0.281 -0.059 c -0.082 -0.023 -0.152 -0.047 -0.211 -0.07 c -0.055 -0.023 -0.096 -0.043 -0.123 -0.059 l 0.1 -0.34 c 0.023 0.016 0.063 0.035 0.117 0.059 c 0.055 0.023 0.119 0.047 0.193 0.07 c 0.078 0.019 0.164 0.037 0.258 0.053 c 0.098 0.016 0.203 0.023 0.316 0.023 c 0.37 0 0.635 -0.076 0.795 -0.229 c 0.16 -0.156 0.24 -0.364 0.24 -0.625 c 0 -0.172 -0.033 -0.315 -0.1 -0.428 c -0.062 -0.113 -0.151 -0.203 -0.264 -0.27 c -0.109 -0.07 -0.239 -0.119 -0.387 -0.146 c -0.144 -0.031 -0.297 -0.047 -0.461 -0.047 l -0.059 0 l 0 -0.314 l 0.135 0 c 0.105 0 0.211 -0.01 0.32 -0.029 c 0.113 -0.023 0.215 -0.065 0.305 -0.123 c 0.094 -0.059 0.17 -0.137 0.229 -0.234 c 0.062 -0.098 0.094 -0.223 0.094 -0.375 c 0 -0.129 -0.022 -0.236 -0.064 -0.326 c -0.043 -0.094 -0.102 -0.168 -0.176 -0.223 c -0.07 -0.055 -0.154 -0.094 -0.252 -0.117 c -0.094 -0.027 -0.192 -0.041 -0.297 -0.041 c -0.211 0 -0.375 0.029 -0.492 0.088 c -0.117 0.059 -0.213 0.113 -0.287 0.164 l -0.164 -0.299 c 0.039 -0.027 0.088 -0.059 0.146 -0.094 c 0.062 -0.035 0.135 -0.068 0.217 -0.1 c 0.082 -0.031 0.172 -0.057 0.27 -0.076 c 0.101 -0.023 0.211 -0.035 0.328 -0.035 z" style="fill:#353535;fill-opacity:1"/>
</svg>
